svg/FoundationIcons/fi-graph-horizontal.svg

<svg xmlns="http://www.w3.org/2000/svg" viewBox="0 0 100 100" enable-background="new 0 0 100 100"><path d="m86.3 40.985h-72.61c-.836 0-1.513.677-1.513 1.513v15.13c0 .836.677 1.513 1.513 1.513h72.61c.836 0 1.513-.677 1.513-1.513v-15.13c0-.835-.677-1.512-1.513-1.512"/><path d="m56.26 17.848v-.053h-42.565c-.836 0-1.513.677-1.513 1.513v15.13c0 .836.677 1.513 1.513 1.513h42.565v-.053c.652-.169 1.135-.755 1.135-1.459v-15.13c0-.704-.483-1.29-1.135-1.459"/><path d="m65.883 64.05h-52.19c-.836 0-1.513.677-1.513 1.513v15.13c0 .836.677 1.513 1.513 1.513h52.19c.836 0 1.513-.677 1.513-1.513v-15.13c0-.836-.677-1.513-1.513-1.513"/></svg>

<?xml version="1.0" encoding="utf-8"?>
<!-- Generator: Adobe Illustrator 17.0.0, SVG Export Plug-In . SVG Version: 6.00 Build 0)  -->
<!DOCTYPE svg PUBLIC "-//W3C//DTD SVG 1.1//EN" "http://www.w3.org/Graphics/SVG/1.1/DTD/svg11.dtd">
<svg version="1.1" id="Layer_1" xmlns="http://www.w3.org/2000/svg" xmlns:xlink="http://www.w3.org/1999/xlink" x="0px" y="0px"
	 width="100px" height="100px" viewBox="0 0 100 100" enable-background="new 0 0 100 100" xml:space="preserve">
<g>
	<g>
		<path d="M86.304,40.985H13.696c-0.836,0-1.513,0.677-1.513,1.513v15.127c0,0.836,0.677,1.513,1.513,1.513h72.608
			c0.836,0,1.513-0.677,1.513-1.513V42.497C87.817,41.662,87.14,40.985,86.304,40.985z"/>
	</g>
	<g>
		<path d="M56.261,17.848v-0.053H13.696c-0.836,0-1.513,0.677-1.513,1.513v15.127c0,0.836,0.677,1.513,1.513,1.513h42.565v-0.053
			c0.652-0.169,1.135-0.755,1.135-1.459V19.307C57.396,18.603,56.913,18.017,56.261,17.848z"/>
	</g>
	<g>
		<path d="M65.883,64.053H13.696c-0.836,0-1.513,0.677-1.513,1.513v15.127c0,0.836,0.677,1.513,1.513,1.513h52.187
			c0.836,0,1.513-0.677,1.513-1.513V65.566C67.396,64.73,66.719,64.053,65.883,64.053z"/>
	</g>
</g>
</svg>
